godot/editor/icons/Dictionary.svg

<svg height="12" viewBox="0 0 16 12" width="16" xmlns="http://www.w3.org/2000/svg"><path d="m3 2v2a3 3 0 0 0 -3 3 3 3 0 0 0 3 3h2v-8zm3 0v2h2v-2zm7 0v5a3 3 0 0 0 3 3v-2a1 1 0 0 1 -1-1v-1h1v-2h-1v-2zm-2 2a3 3 0 0 0 -3 3 3 3 0 0 0 3 3h1v-2h-1a1 1 0 0 1 -1-1 1 1 0 0 1 1-1h1v-2zm-3 3v-1h-2v4h2zm-5-1v2a1 1 0 0 1 -1-1 1 1 0 0 1 1-1z" fill="#54ed9e"/></svg>

<svg height="12" viewBox="0 0 16 12" width="16" xmlns="http://www.w3.org/2000/svg"><path d="M3 2v2a3 3 0 0 0 0 6h2V2zm3 0v2h2V2zm7 0v5a3 3 0 0 0 3 3V8a1 1 0 0 1-1-1V6h1V4h-1V2zm-2 2a3 3 0 0 0 0 6h1V8h-1a1 1 0 0 1 0-2h1V4zM8 7V6H6v4h2zM3 6v2a1 1 0 0 1 0-2z" fill="#54ed9e"/></svg>
